public/assets/images/testimonials/06.svg

<svg width="52" height="52" viewBox="0 0 52 52" fill="none" xmlns="http://www.w3.org/2000/svg">
<rect x="1" y="1" width="50" height="50" rx="25" fill="#614CE1"/>
<rect x="1" y="1" width="50" height="50" rx="25" stroke="#F7F5FF" stroke-width="2"/>
<path d="M15.958 29.1133V27.6436L20.2852 20.8145H21.502V22.9062H20.7568L17.8447 27.5137V27.5957H23.8809V29.1133H15.958ZM20.8115 31V28.6689L20.8389 28.0059V20.8145H22.5752V31H20.8115ZM25.9932 31.1162C25.6833 31.1162 25.4212 31.0114 25.207 30.8018C24.9974 30.5876 24.8926 30.3278 24.8926 30.0225C24.8926 29.7171 24.9974 29.4596 25.207 29.25C25.4212 29.0358 25.6833 28.9287 25.9932 28.9287C26.3031 28.9287 26.5628 29.0358 26.7725 29.25C26.9867 29.4596 27.0938 29.7171 27.0938 30.0225C27.0938 30.3278 26.9867 30.5876 26.7725 30.8018C26.5628 31.0114 26.3031 31.1162 25.9932 31.1162ZM31.9609 20.6641C32.4531 20.6686 32.9294 20.7552 33.3896 20.9238C33.8545 21.0924 34.2715 21.3659 34.6406 21.7441C35.0098 22.1224 35.3037 22.6283 35.5225 23.2617C35.7412 23.8952 35.8506 24.679 35.8506 25.6133C35.8506 26.4837 35.7572 27.263 35.5703 27.9512C35.388 28.6348 35.1214 29.2158 34.7705 29.6943C34.4242 30.1683 34.0049 30.5306 33.5127 30.7812C33.0205 31.0273 32.4714 31.1504 31.8652 31.1504C31.2227 31.1504 30.653 31.0228 30.1562 30.7676C29.6595 30.5124 29.2585 30.166 28.9531 29.7285C28.6478 29.291 28.4587 28.7943 28.3857 28.2383H30.2041C30.2952 28.6348 30.4844 28.9538 30.7715 29.1953C31.0632 29.4323 31.4277 29.5508 31.8652 29.5508C32.5671 29.5508 33.1071 29.2432 33.4854 28.6279C33.8682 28.0127 34.0618 27.165 34.0664 26.085H33.9912C33.8271 26.3766 33.6152 26.6273 33.3555 26.8369C33.1003 27.0465 32.8109 27.2083 32.4873 27.3223C32.1637 27.4362 31.8197 27.4932 31.4551 27.4932C30.8581 27.4932 30.3203 27.3519 29.8418 27.0693C29.3633 26.7822 28.985 26.388 28.707 25.8867C28.429 25.3854 28.29 24.8158 28.29 24.1777C28.29 23.5078 28.4427 22.9085 28.748 22.3799C29.0579 21.8467 29.4863 21.4274 30.0332 21.1221C30.5846 20.8122 31.2272 20.6595 31.9609 20.6641ZM31.9746 22.168C31.6146 22.168 31.291 22.2568 31.0039 22.4346C30.7168 22.6077 30.4912 22.8424 30.3271 23.1387C30.1631 23.4349 30.0811 23.7676 30.0811 24.1367C30.0811 24.5013 30.1608 24.8317 30.3203 25.1279C30.4798 25.4242 30.7008 25.6589 30.9834 25.832C31.266 26.0007 31.5872 26.085 31.9473 26.085C32.3073 26.085 32.6309 25.9961 32.918 25.8184C33.2096 25.6361 33.4398 25.3968 33.6084 25.1006C33.777 24.7998 33.8613 24.474 33.8613 24.123C33.8613 23.7721 33.7793 23.4486 33.6152 23.1523C33.4557 22.8561 33.2324 22.6191 32.9453 22.4414C32.6628 22.2591 32.3392 22.168 31.9746 22.168Z" fill="#F7F5FF"/>
</svg>

<svg xmlns="http://www.w3.org/2000/svg" width="52" height="52" fill="none" viewBox="0 0 52 52"><rect width="50" height="50" x="1" y="1" fill="#614ce1" rx="25"/><rect width="50" height="50" x="1" y="1" stroke="#f7f5ff" stroke-width="2" rx="25"/><path fill="#f7f5ff" d="M15.958 29.113v-1.47l4.327-6.829h1.217v2.092h-.745l-2.912 4.608v.082h6.036v1.517zM20.811 31v-2.331l.028-.663v-7.192h1.736V31zm5.182.116q-.465 0-.786-.314a1.07 1.07 0 0 1-.314-.78q0-.457.314-.772a1.07 1.07 0 0 1 .786-.321q.465 0 .78.321.32.314.32.773 0 .458-.32.779-.315.315-.78.314m5.968-10.452q.738.007 1.429.26.698.252 1.25.82.555.567.883 1.518.328.95.328 2.351 0 1.305-.28 2.338-.275 1.026-.8 1.743a3.5 3.5 0 0 1-1.258 1.087 3.6 3.6 0 0 1-1.648.37q-.963 0-1.709-.383a3.25 3.25 0 0 1-1.203-1.04 3.3 3.3 0 0 1-.567-1.49h1.818q.137.595.567.957.438.356 1.094.356 1.053 0 1.62-.923.575-.923.581-2.543h-.075a2.6 2.6 0 0 1-.636.752q-.382.315-.868.485-.485.171-1.032.171a3.1 3.1 0 0 1-1.613-.424 3.1 3.1 0 0 1-1.135-1.182q-.417-.752-.417-1.71 0-1.004.458-1.797.465-.8 1.285-1.258.828-.465 1.928-.458m.014 1.504q-.54 0-.971.267a1.86 1.86 0 0 0-.677.704 2 2 0 0 0-.246.998q0 .547.24.99.239.446.662.705.424.253.964.253t.971-.267q.438-.273.69-.717.253-.451.253-.978t-.246-.97a1.86 1.86 0 0 0-.67-.712 1.75 1.75 0 0 0-.97-.273"/></svg>
